src/components/00-materials/images-raw/Check List.svg

<svg width="96" height="96" viewBox="0 0 96 96" fill="none" xmlns="http://www.w3.org/2000/svg">
<path d="M48.16 30.44H65.81M62 20.47V8.99997H22.33C22.0266 8.99733 21.7257 9.05447 21.4445 9.16813C21.1632 9.28178 20.9071 9.44973 20.6907 9.66238C20.4743 9.87503 20.302 10.1282 20.1835 10.4075C20.065 10.6867 20.0026 10.9866 20 11.29V84.71C20.0026 85.0133 20.065 85.3132 20.1835 85.5925C20.302 85.8717 20.4743 86.1249 20.6907 86.3375C20.9071 86.5502 21.1632 86.7181 21.4445 86.8318C21.7257 86.9455 22.0266 87.0026 22.33 87H73.67C74.2819 87.0027 74.87 86.7635 75.3064 86.3346C75.7428 85.9057 75.9921 85.3218 76 84.71V22.76H64.33C64.0263 22.7639 63.7248 22.7077 63.4429 22.5945C63.1611 22.4813 62.9044 22.3134 62.6878 22.1005C62.4711 21.8876 62.2988 21.6339 62.1808 21.354C62.0627 21.0742 62.0013 20.7737 62 20.47V20.47ZM62 8.99997L76 22.76L62 8.99997Z" stroke="#00008F" stroke-width="2" stroke-linecap="round" stroke-linejoin="round"/>
<path d="M39.1601 27.59L33.0101 33.29L30.1801 29.66M48.1601 41.07H65.8101M39.1601 38.21L33.0101 43.92L30.1801 40.29M48.1601 51.69H65.8101M39.1601 48.84L33.0101 54.54L30.1801 50.91M48.1601 63.44H65.8101M39.1601 60.59L33.0101 66.29L30.1801 62.66M48.1601 75.19H65.8101M39.1601 72.34L33.0101 78.04L30.1801 74.42" stroke="#00008F" stroke-width="2" stroke-linecap="round" stroke-linejoin="round"/>
</svg>

<svg width="96" height="96" viewBox="0 0 96 96" fill="none" xmlns="http://www.w3.org/2000/svg"><path d="M48.16 30.44h17.65M62 20.47V9H22.33A2.31 2.31 0 0020 11.29v73.42A2.31 2.31 0 0022.33 87h51.34A2.32 2.32 0 0076 84.71V22.76H64.33A2.301 2.301 0 0162 20.47v0zM62 9l14 13.76L62 9z" stroke="#00008F" stroke-width="2" stroke-linecap="round" stroke-linejoin="round"/><path d="M39.16 27.59l-6.15 5.7-2.83-3.63m17.98 11.41h17.65m-26.65-2.86l-6.15 5.71-2.83-3.63m17.98 11.4h17.65m-26.65-2.85l-6.15 5.7-2.83-3.63m17.98 12.53h17.65m-26.65-2.85l-6.15 5.7-2.83-3.63m17.98 12.53h17.65m-26.65-2.85l-6.15 5.7-2.83-3.62" stroke="#00008F" stroke-width="2" stroke-linecap="round" stroke-linejoin="round"/></svg>
